!!!COM:	Josquin des Prez
!!!CDT:	~1450-1521/08/27
!!!OPR:	Missa L'homme arm&eacute; sexti toni
!!!ONM:	5
!!!OTL:	Agnus Dei
!!!AGN:	Mass; Agnus Dei
!!!SCT:	NJE 6.2
!!!SCA:	New Josquin Edition 6.2
!!!voices: 4
!!!voices-OPR: 4(-6)
**kern	**kern	**kern	**kern	**kern	**kern
*staff6	*staff5	*staff4	*staff3	*staff2	*staff1
*Ivox	*Ivox	*Ivox	*Ivox	*Ivox	*Ivox
*I"Bassus	*I"Tenor	*I"Altus2	*I"Altus1	*I"Superius2	*I"Superius1
*I'B	*I'T	*I'A2	*I'A1	*I'S2	*I'S1
*>[A,B,C]	*>[A,B,C]	*>[A,B,C]	*>[A,B,C]	*>[A,B,C]	*>[A,B,C]
*>Agnus1[A]	*>Agnus1[A]	*>Agnus1[A]	*>Agnus1[A]	*>Agnus1[A]	*>Agnus1[A]
*>Agnus2[B]	*>Agnus2[B]	*>Agnus2[B]	*>Agnus2[B]	*>Agnus2[B]	*>Agnus2[B]
*>Agnus3[C]	*>Agnus3[C]	*>Agnus3[C]	*>Agnus3[C]	*>Agnus3[C]	*>Agnus3[C]
*clefF4	*clefF4	*clefGv2	*clefGv2	*clefG2	*clefG2
*k[b-]	*k[b-]	*k[b-]	*k[b-]	*k[b-]	*k[b-]
*>A	*>A	*>A	*>A	*>A	*>A
*M3/1	*M3/1	*M3/1	*M3/1	*M3/1	*M3/1
*met(O)	*met(O)	*met(O)	*met(O)	*met(O)	*met(O)
!!!OMD: Agnus Dei I
!!section: Agnus Dei I
=1-	=1-	=1-	=1-	=1-	=1-
0.r	0.r	0.r	0F	0.r	0.r
.	.	.	1F	.	.
=2	=2	=2	=2	=2	=2
0.r	0.r	0.r	1F	0.r	0f
.	.	.	1.B-	.	.
.	.	.	.	.	1f
.	.	.	2A/	.	.
=3	=3	=3	=3	=3	=3
0.r	0.r	0.r	1A	0.r	1f
.	.	.	0G	.	1.b-
.	.	.	.	.	2a/
=4	=4	=4	=4	=4	=4
[0.FF	0F	0.r	1.F	0.r	1a
.	.	.	.	.	1.cc
.	.	.	2E/	.	.
.	1F	.	1C	.	.
.	.	.	.	.	2b-\
=5	=5	=5	=5	=5	=5
1FF]	1F	0.r	0.D	0.r	1a
0GG	1.B-	.	.	.	0g
.	2A\	.	.	.	.
=6	=6	=6	=6	=6	=6
1AA	1A	0.r	1C	0.r	0f
1BB-	0G	.	1r	.	.
1C	.	.	1c	.	1e
=7	=7	=7	=7	=7	=7
0D	0F	0.r	2A/	0.r	0f
.	.	.	1B-	.	.
.	.	.	4A/	.	.
.	.	.	4G/	.	.
1r	1r	.	1F	.	1r
=8	=8	=8	=8	=8	=8
[0.C	[0.c	0.r	0.G	0.r	0e
.	.	.	.	.	1e
=9	=9	=9	=9	=9	=9
1C]	1c]	0.r	0A	0.r	1e
0D	0F	.	.	.	0f
.	.	.	1B-	.	.
=10	=10	=10	=10	=10	=10
1E	0.r	0.r	1.c	0.r	1e
1F	.	.	.	.	0d
.	.	.	4Bni\	.	.
.	.	.	4A/	.	.
1G	.	.	1Bni	.	.
=11	=11	=11	=11	=11	=11
0.A	0.c	0.r	0c	0.r	1c
.	.	.	.	.	1.cc
.	.	.	1F	.	.
.	.	.	.	.	2b-\
=12	=12	=12	=12	=12	=12
2r	1F	0.r	1c	0.r	1a
2A\	.	.	.	.	.
2F\	0c	.	2A/	.	2r
2G\	.	.	2B-\	.	2g/
1A	.	.	1c	.	2e/
.	.	.	.	.	2f/
=13	=13	=13	=13	=13	=13
2r	1B-	0.r	1d	0.r	1g
2G\	.	.	.	.	.
2E\	2c\	.	2r	.	2r
2F\	2A\	.	1d	.	2f/
1G	1B-	.	.	.	2d/
.	.	.	2B-\	.	2e/
=14	=14	=14	=14	=14	=14
2r	1A	0.r	1c	0.r	1f
2F\	.	.	.	.	.
2D\	2B-\	.	2r	.	2r
2E\	2G\	.	1c	.	2e/
1F	1A	.	.	.	2c/
.	.	.	2A/	.	2d/
=15	=15	=15	=15	=15	=15
2r	1G	0.r	1B-	0.r	1e
2E\	.	.	.	.	.
2C/	2A\	.	2r	.	2r
2D\	2F\	.	1B-	.	2d/
1E	1G	.	.	.	2B-/
.	.	.	2G/	.	2c/
=16	=16	=16	=16	=16	=16
2r	0F	0.r	1A	0.r	1d
2D\	.	.	.	.	.
2BB-/	.	.	2r	.	2r
2C/	.	.	1A	.	2c/
1D	1r	.	.	.	2A/
.	.	.	2F/	.	2B-/
=17	=17	=17	=17	=17	=17
0.C	1c	0.r	2G/	0.r	1c
.	.	.	1A	.	.
.	1c	.	.	.	1r
.	.	.	4G/	.	.
.	.	.	4F/	.	.
.	1c	.	1G	.	1e
=18	=18	=18	=18	=18	=18
0.D	0.F	0.r	2r	0.r	1.f
.	.	.	1d	.	.
.	.	.	2c\	.	4e/
.	.	.	.	.	4d/
.	.	.	2A/	.	1f
.	.	.	2B-\	.	.
=19	=19	=19	=19	=19	=19
2r	0.r	0.r	1c	0.r	1e
2C/	.	.	.	.	.
2AA/	.	.	2r	.	2c/
2BB-/	.	.	2B-\	.	2d/
1C	.	.	2G/	.	1e
.	.	.	2A/	.	.
=20	=20	=20	=20	=20	=20
2r	0.r	0.r	1B-	0.r	1d
2BB-/	.	.	.	.	.
2GG/	.	.	2r	.	2B-/
2AA/	.	.	2A/	.	2c/
1BB-	.	.	2F/	.	1d
.	.	.	2G/	.	.
=21	=21	=21	=21	=21	=21
2r	2r	0.r	1A	0.r	0.c
2AA/	2c\	.	.	.	.
2FF/	2A\	.	2r	.	.
2GG/	2B-\	.	2G/	.	.
1AA	1c	.	2E/	.	.
.	.	.	2F/	.	.
=22	=22	=22	=22	=22	=22
2r	2r	0.r	1G	0.r	1r
2GG/	2B-\	.	.	.	.
2EE-/	2G\	.	2r	.	1r
2FF/	2A\	.	2F/	.	.
1GG	1B-	.	2D/	.	1g
.	.	.	2E/	.	.
=23	=23	=23	=23	=23	=23
0.FF	2r	0.r	2.F/	0.r	2a/
.	2A\	.	.	.	1cc
.	.	.	4G/	.	.
.	2F\	.	2A/	.	.
.	2G\	.	2B-\	.	2b-\
.	1A	.	[1c	.	2a/
.	.	.	.	.	4g/
.	.	.	.	.	4f/
=24	=24	=24	=24	=24	=24
0.C	2r	0.r	2c\]	0.r	4e/
.	.	.	.	.	4d/
.	2G\	.	4B-\	.	2.g/
.	.	.	4A/	.	.
.	2E\	.	2G/	.	.
.	.	.	.	.	4f/
.	2F\	.	2A/	.	1f
.	1G	.	2G/	.	.
.	.	.	2c\	.	2e/
=25	=25	=25	=25	=25	=25
[0.FFl	[0.Fl	0.r	2A/	0.r	[0.fl
.	.	.	2B-\	.	.
.	.	.	1c	.	.
.	.	.	1d	.	.
=26	=26	=26	=26	=26	=26
0.FF]	0.F]	0.r	0.cl	0.r	0.f]
!!LO:LB:i:g=z
=27||	=27||	=27||	=27||	=27||	=27||
*>B	*>B	*>B	*>B	*>B	*>B
*clefF4	*clefF4	*clefGv2	*clefGv2	*clefG2	*clefG2
*k[b-]	*k[b-]	*k[b-]	*k[b-]	*k[b-]	*k[b-]
*M2/1	*M2/1	*M2/1	*M2/1	*M2/1	*M2/1
*met(C|)	*met(C|)	*met(C|)	*met(C|)	*met(C|)	*met(C|)
!!section: Agnus Dei II
!!!OMD: Agnus Dei II
[0F	0r	0r	0r	0r	1.c
.	.	.	.	.	4B-/
.	.	.	.	.	4A/
=28	=28	=28	=28	=28	=28
0F]	0r	0r	0r	0r	1d
.	.	.	.	.	1c
=29	=29	=29	=29	=29	=29
1E	0r	0r	0r	0r	2r
.	.	.	.	.	1c
[1F	.	.	.	.	.
.	.	.	.	.	4B-/
.	.	.	.	.	4A/
=30	=30	=30	=30	=30	=30
0F]	0r	0r	0r	0r	1d
.	.	.	.	.	1c
=31	=31	=31	=31	=31	=31
1E	0r	0r	0r	0r	2r
.	.	.	.	.	2.c/
[1F	.	.	.	.	.
.	.	.	.	.	4A/
.	.	.	.	.	[2d/
=32	=32	=32	=32	=32	=32
1F]	0r	0r	0r	0r	4d/]
.	.	.	.	.	4c/
.	.	.	.	.	4B-/
.	.	.	.	.	4A/
1E	.	.	.	.	1G
=33	=33	=33	=33	=33	=33
[0F	0r	0r	[0c	0r	0F
=34	=34	=34	=34	=34	=34
0F]	0r	0r	0c]	0r	1r
.	.	.	.	.	1c
=35	=35	=35	=35	=35	=35
0r	0r	0r	1B-	0r	1d
.	.	.	[1c	.	2.e/
.	.	.	.	.	4f/
=36	=36	=36	=36	=36	=36
0r	0r	0r	0c]	0r	2g/
.	.	.	.	.	1a
.	.	.	.	.	[2g/
=37	=37	=37	=37	=37	=37
0r	0r	0r	1B-	0r	2g/]
.	.	.	.	.	2b-\
.	.	.	[1c	.	2a/
.	.	.	.	.	[2g/
=38	=38	=38	=38	=38	=38
1r	0r	0r	1c]	0r	2g/]
.	.	.	.	.	4f/
.	.	.	.	.	4e/
2.G\	.	.	1B-	.	2d/
.	.	.	.	.	[2g/
4F\	.	.	.	.	.
=39	=39	=39	=39	=39	=39
4E\	0r	0r	0c	0r	4g/]
4D\	.	.	.	.	4f/
1F	.	.	.	.	1a
4E\	.	.	.	.	4g/
4D\	.	.	.	.	4f/
=40	=40	=40	=40	=40	=40
1C	0r	0r	1r	0r	0e
1C	.	.	2.c\	.	.
.	.	.	4B-\	.	.
=41	=41	=41	=41	=41	=41
1D	0r	0r	4A/	0r	0r
.	.	.	4G/	.	.
.	.	.	1B-	.	.
1GG	.	.	.	.	.
.	.	.	4A/	.	.
.	.	.	4G/	.	.
=42	=42	=42	=42	=42	=42
2.D\	0r	0r	1F	0r	0r
4C/	.	.	.	.	.
2AA/	.	.	1F	.	.
[2BB-/	.	.	.	.	.
=43	=43	=43	=43	=43	=43
2BB-/]	0r	0r	1G	0r	0r
1C	.	.	.	.	.
.	.	.	1C	.	.
[2FF/	.	.	.	.	.
=44	=44	=44	=44	=44	=44
2FF/]	0r	0r	2.D/	0r	0r
2.BB-/	.	.	.	.	.
.	.	.	4E/	.	.
.	.	.	2.F/	.	.
4AA/	.	.	.	.	.
4BB-/	.	.	.	.	.
4C/	.	.	4E/	.	.
=45	=45	=45	=45	=45	=45
2.D\	0r	0r	4F/	0r	0r
.	.	.	4G/	.	.
.	.	.	2.A/	.	.
4C/	.	.	.	.	.
4D\	.	.	.	.	.
4E\	.	.	4G/	.	.
[2F\	.	.	4A/	.	.
.	.	.	4B-\	.	.
=46	=46	=46	=46	=46	=46
4F\]	0r	0r	1c	0r	2.A/
4E\	.	.	.	.	.
4F\	.	.	.	.	.
4G\	.	.	.	.	4B-/
2A\	.	.	1r	.	2c/
[2B-\	.	.	.	.	[2d/
=47	=47	=47	=47	=47	=47
2B-\]	0r	0r	0r	0r	2d/]
1A	.	.	.	.	2e/
.	.	.	.	.	2f/
2G\	.	.	.	.	2g/
=48	=48	=48	=48	=48	=48
1A	0r	0r	2r	0r	0c
.	.	.	2.c\	.	.
2r	.	.	.	.	.
.	.	.	4B-\	.	.
2AA/	.	.	4A/	.	.
.	.	.	4G/	.	.
=49	=49	=49	=49	=49	=49
2BB-/	0r	0r	2F/	0r	1r
2GG/	.	.	2G/	.	.
1AA	.	.	1E	.	1c
=50	=50	=50	=50	=50	=50
0r	0r	0r	2D/	0r	0f
.	.	.	2.d\	.	.
.	.	.	4c\	.	.
.	.	.	2A/	.	.
=51	=51	=51	=51	=51	=51
1r	0r	0r	2B-\	0r	1g
.	.	.	2c\	.	.
2r	.	.	1F	.	[1a
[2A\	.	.	.	.	.
=52	=52	=52	=52	=52	=52
4A\]	0r	0r	0r	0r	2a/]
4G\	.	.	.	.	.
2E\	.	.	.	.	2g/
2F\	.	.	.	.	2a/
2G\	.	.	.	.	[2g/
=53	=53	=53	=53	=53	=53
1C	0r	0r	2r	0r	4g/]
.	.	.	.	.	4f/
.	.	.	2.c\	.	4e/
.	.	.	.	.	4d/
1r	.	.	.	.	1e
.	.	.	4B-\	.	.
.	.	.	2G/	.	.
=54	=54	=54	=54	=54	=54
1r	0r	0r	2A/	0r	1f
.	.	.	2B-\	.	.
2r	.	.	1E-	.	[1g
[2E-\	.	.	.	.	.
=55	=55	=55	=55	=55	=55
4E-\]	0r	0r	0r	0r	1g]
4D\	.	.	.	.	.
2BB-/	.	.	.	.	.
2C/	.	.	.	.	1a
2D\	.	.	.	.	.
=56	=56	=56	=56	=56	=56
1GG	0r	0r	2r	0r	1.b-
.	.	.	2.B-\	.	.
1r	.	.	.	.	.
.	.	.	4A/	.	.
.	.	.	2F/	.	2a/
=57	=57	=57	=57	=57	=57
1r	0r	0r	2G/	0r	2b-\
.	.	.	2A/	.	2.a/
2r	.	.	1D	.	.
.	.	.	.	.	4g/
[2D\	.	.	.	.	4f/
.	.	.	.	.	4e/
=58	=58	=58	=58	=58	=58
4D\]	0r	0r	0r	0r	2d/
4C/	.	.	.	.	.
2AA/	.	.	.	.	2c/
2BB-/	.	.	.	.	2d/
2C/	.	.	.	.	[2c/
=59	=59	=59	=59	=59	=59
1FF	0r	0r	2.F/	0r	4c/]
.	.	.	.	.	4B-/
.	.	.	.	.	4A/
.	.	.	4G/	.	4G/
1r	.	.	4A/	.	1F
.	.	.	4B-\	.	.
.	.	.	[2A/	.	.
=60	=60	=60	=60	=60	=60
1F	0r	0r	2A/]	0r	0r
.	.	.	4G/	.	.
.	.	.	4F/	.	.
!LO:TX:Y=30:t=60iv2&colon; f in Petrucci [error]	!	!	!	!	!
2E\	.	.	2G/	.	.
[2F\	.	.	2F/	.	.
=61	=61	=61	=61	=61	=61
2F\]	0r	0r	2A/	0r	2.c/
4E\	.	.	2B-\	.	.
4D\	.	.	.	.	4d/
1C	.	.	1c	.	4e/
.	.	.	.	.	4f/
.	.	.	.	.	[2e/
=62	=62	=62	=62	=62	=62
0r	0r	0r	2r	0r	2e/]
.	.	.	2c\	.	4d/
.	.	.	.	.	4c/
.	.	.	2B-\	.	2d/
.	.	.	[2c\	.	2c/
=63	=63	=63	=63	=63	=63
1r	0r	0r	2c\]	0r	2e/
.	.	.	4B-\	.	2f/
.	.	.	4A/	.	.
2r	.	.	[1G	.	1g
[2E-\	.	.	.	.	.
=64	=64	=64	=64	=64	=64
2E-\]	0r	0r	1G]	0r	2r
4D\	.	.	.	.	2g/
4C/	.	.	.	.	.
2D\	.	.	1r	.	2f/
2C/	.	.	.	.	[2g/
=65	=65	=65	=65	=65	=65
0G	0r	0r	1r	0r	2g/]
.	.	.	.	.	4f/
.	.	.	.	.	4e/
.	.	.	2r	.	1d
.	.	.	2B-\	.	.
=66	=66	=66	=66	=66	=66
1D	0r	0r	2A/	0r	0r
.	.	.	1B-	.	.
1E-i	.	.	.	.	.
.	.	.	4A/	.	.
.	.	.	4G/	.	.
=67	=67	=67	=67	=67	=67
1D	0r	0r	1F	0r	2r
.	.	.	.	.	2a/
2E-i\	.	.	1r	.	2g/
2C/	.	.	.	.	[2a/
=68	=68	=68	=68	=68	=68
1D	0r	0r	1r	0r	2a/]
.	.	.	.	.	4g/
.	.	.	.	.	4f/
1C	.	.	2r	.	1e
.	.	.	2c\	.	.
=69	=69	=69	=69	=69	=69
2D\	0r	0r	2B-\	0r	1r
2C/	.	.	1c	.	.
2E\	.	.	.	.	2r
2F\	.	.	4B-\	.	2cc\
.	.	.	4A/	.	.
=70	=70	=70	=70	=70	=70
2G\	0r	0r	2G/	0r	2b-\
1A	.	.	1F	.	1cc
2F\	.	.	2c\	.	4b-\
.	.	.	.	.	4a/
=71	=71	=71	=71	=71	=71
2G\	0r	0r	2B-\	0r	1g
2E\	.	.	1c	.	.
1F	.	.	.	.	1r
.	.	.	4B-\	.	.
.	.	.	4A/	.	.
=72	=72	=72	=72	=72	=72
2E\	0r	0r	2G/	0r	2r
2F\	.	.	2F/	.	2a/
2E\	.	.	2G/	.	2g/
[2F\	.	.	2F/	.	[2a/
=73	=73	=73	=73	=73	=73
2F\]	0r	0r	2A/	0r	4a/]
.	.	.	.	.	4g/
2D\	.	.	2B-\	.	1f
1C	.	.	1c	.	.
.	.	.	.	.	2e/
=74	=74	=74	=74	=74	=74
0BB-	0r	0r	0d	0r	[0fl
=75	=75	=75	=75	=75	=75
0Fl	0r	0r	0c;l	0r	0f]
!!LO:LB:i:g=z
=76||	=76||	=76||	=76||	=76||	=76||
*>C	*>C	*>C	*>C	*>C	*>C
!!section: Agnus Dei III
!!!OMD: Agnus Dei III
*clefF4	*clefF4	*clefGv2	*clefGv2	*clefG2	*clefG2
*k[b-]	*k[b-]	*k[b-]	*k[b-]	*k[b-]	*k[b-]
*rscale:1/2	*rscale:1/2	*	*	*	*
*M3/0	*M3/0	*M2/1	*M2/1	*M2/1	*M2/1
*met(O2)	*met(O2)	*met(O2)	*met(O2)	*met(C|)	*met(C|)
!	!	!	!	!	!LO:TX:Z=6:t=Canon&colon; ad minimam fuga [as in CasAC M(D)]
!	!	!	!LO:TX:Z=6:t=Canon&colon; ad minimam fuga [as in CasAC M(D)]	!	!
!LO:TX:Z=6:t=Canon&colon; ante et retro [as in CasAC M(D)]	!	!	!	!	!
[0FF	[0F	2r	1c	0r	0r
.	.	1c	.	.	.
.	.	.	2A/	.	.
.	.	2A/	[2c\	.	.
=77-	=77-	=77	=77	=77	=77
0FF_	0F]	2.c\	4c\]	0r	0r
.	.	.	4B-\	.	.
.	.	.	4A/	.	.
.	.	4B-\	4G/	.	.
.	.	4A/	2F/	.	.
.	.	4G/	.	.	.
.	.	2F/	2c\	.	.
=78-	=78-	=78	=78	=78	=78
0FF]	0F	2c\	2.A/	0r	0r
.	.	2.A/	.	.	.
.	.	.	4B-\	.	.
.	.	.	2.c\	.	.
.	.	4B-\	.	.	.
.	.	[2c\	.	.	.
.	.	.	4B-\	.	.
=79	=79	=79	=79	=79	=79
0C	[0E	4c\]	0G	2r	1g
.	.	4B-\	.	.	.
.	.	[1.G	.	1g	.
.	.	.	.	.	2e/
.	.	.	.	2e/	[2g/
=80-	=80-	=80	=80	=80	=80
[0C	0E]	2G/]	0r	2.g/	4g/]
.	.	.	.	.	4f/
.	.	2r	.	.	4e/
.	.	.	.	4f/	4d/
.	.	1r	.	4e/	2c/
.	.	.	.	4d/	.
.	.	.	.	2c/	2e/
=81-	=81-	=81	=81	=81	=81
0C]	0E	0r	0r	2e/	2c/
.	.	.	.	2c/	2.e/
.	.	.	.	2.e/	.
.	.	.	.	.	4d/
.	.	.	.	.	4c/
.	.	.	.	4d/	4B-/
=82	=82	=82	=82	=82	=82
0r	[0F	2r	1c	4c/	[0A
.	.	.	.	4B-/	.
.	.	1c	.	[1.A	.
.	.	.	2A/	.	.
.	.	2A/	[2c\	.	.
=83-	=83-	=83	=83	=83	=83
[0FF	1F]	2.c\	4c\]	0A_	0A_
.	.	.	4B-\	.	.
.	.	.	4A/	.	.
.	.	4B-\	4G/	.	.
.	[1C	4A/	2F/	.	.
.	.	4G/	.	.	.
.	.	2F/	2A/	.	.
=84-	=84-	=84	=84	=84	=84
0FF]	0C]	2A/	2F/	0A_	0A]
.	.	2F/	2.A/	.	.
.	.	2.A/	.	.	.
.	.	.	4G/	.	.
.	.	.	4F/	.	.
.	.	4G/	4E/	.	.
=85	=85	=85	=85	=85	=85
[0FF	0r	4F/	4D/	2A/]	0r
.	.	4E/	4C/	.	.
.	.	4D/	2F/	2r	.
.	.	4C/	.	.	.
.	.	2F/	2r	1r	.
.	.	2r	[2F/	.	.
=86-	=86-	=86	=86	=86	=86
1FF]	0r	2.F/	4F/]	0r	0r
.	.	.	4E/	.	.
.	.	.	4D/	.	.
.	.	4E/	4C/	.	.
[1GG	.	4D/	2BB-/	.	.
.	.	4C/	.	.	.
.	.	2BB-/	[2B-\	.	.
=87-	=87-	=87	=87	=87	=87
0GG]	0r	2.B-\	4B-\]	0r	0r
.	.	.	4A/	.	.
.	.	.	2.G/	.	.
.	.	4A/	.	.	.
.	.	2.G/	.	.	.
.	.	.	4F/	.	.
.	.	.	4E/	.	.
.	.	4F/	4D/	.	.
=88	=88	=88	=88	=88	=88
[0AA	0r	4E/	2C/	0r	0r
.	.	4D/	.	.	.
.	.	2C/	2.c\	.	.
.	.	2.c\	.	.	.
.	.	.	4B-\	.	.
.	.	.	[2A/	.	.
.	.	4B-\	.	.	.
=89-	=89-	=89	=89	=89	=89
1AA]	0r	2.A/	4A/]	0r	0r
.	.	.	4G/	.	.
.	.	.	4F/	.	.
.	.	4G/	4E/	.	.
[1BB-	.	4F/	2D/	.	.
.	.	4E/	.	.	.
.	.	2D/	[2d\	.	.
=90-	=90-	=90	=90	=90	=90
0BB-]	0r	2.d\	4d\]	0r	0r
.	.	.	4c\	.	.
.	.	.	2.B-\	.	.
.	.	4c\	.	.	.
.	.	2.B-\	.	.	.
.	.	.	4A/	.	.
.	.	.	4G/	.	.
.	.	4A/	4F/	.	.
=91	=91	=91	=91	=91	=91
0C	0r	4G/	1E	2r	2.c/
.	.	4F/	.	.	.
.	.	1E	.	2.c/	.
.	.	.	.	.	4d/
.	.	.	1r	.	2e/
.	.	.	.	4d/	.
.	.	2r	.	2e/	2c/
=92-	=92-	=92	=92	=92	=92
[0C	0r	2r	2.C/	2c/	2.e/
.	.	2.C/	.	2.e/	.
.	.	.	4D/	.	4f/
.	.	.	2E/	.	2g/
.	.	4D/	.	4f/	.
.	.	2E/	2C/	2g/	2e/
=93-	=93-	=93	=93	=93	=93
0C]	0r	2C/	2c\	2e/	4g/
.	.	.	.	.	4f/
.	.	2c\	2A/	4g/	4e/
.	.	.	.	4f/	4d/
.	.	2A/	4c\	4e/	2e/
.	.	.	4B-\	4d/	.
.	.	4c\	4A/	2e/	2r
.	.	4B-\	4G/	.	.
=94	=94	=94	=94	=94	=94
0r	[0F	4A/	1A	2r	2.f/
.	.	4G/	.	.	.
.	.	1A	.	2.f/	.
.	.	.	.	.	4g/
.	.	.	1r	.	2a/
.	.	.	.	4g/	.
.	.	2r	.	2a/	2f/
=95-	=95-	=95	=95	=95	=95
[0FF	0F]	2r	2.F/	2f/	2.a/
.	.	2.F/	.	2.a/	.
.	.	.	4G/	.	4b-\
.	.	.	2A/	.	2cc\
.	.	4G/	.	4b-\	.
.	.	2A/	2F/	2cc\	2a/
=96-	=96-	=96	=96	=96	=96
0FF]	0F	2F/	2.A/	2a/	4cc\
.	.	.	.	.	4b-\
.	.	2.A/	.	4cc\	4a/
.	.	.	4B-\	4b-\	4g/
.	.	.	2.c\	4a/	2a/
.	.	4B-\	.	4g/	.
.	.	[2c\	.	2a/	2r
.	.	.	4B-\	.	.
=97	=97	=97	=97	=97	=97
[0C	[0E	4c\]	1G	2r	2.g/
.	.	4B-\	.	.	.
.	.	1G	.	2.g/	.
.	.	.	.	.	4f/
.	.	.	1r	.	4e/
.	.	.	.	4f/	4d/
.	.	2r	.	4e/	2e/
.	.	.	.	4d/	.
=98-	=98-	=98	=98	=98	=98
1C]	1E]	1r	1r	2e/	2.c/
.	.	.	.	2.c/	.
.	.	.	.	.	4B-/
[1FF	[1F	2r	2F/	.	4A/
.	.	.	.	4B-/	4G/
.	.	2F/	[2c\	4A/	2A/
.	.	.	.	4G/	.
=99-	=99-	=99	=99	=99	=99
0FF]	0F]	2.c\	4c\]	2A/	0r
.	.	.	4B-\	.	.
.	.	.	4A/	2r	.
.	.	4B-\	4G/	.	.
.	.	4A/	2A/	1r	.
.	.	4G/	.	.	.
.	.	2A/	2r	.	.
=100	=100	=100	=100	=100	=100
[0GG	[0D	0r	0r	2r	2G/
.	.	.	.	2G/	2.d/
.	.	.	.	2.d/	.
.	.	.	.	.	4c/
.	.	.	.	.	4B-/
.	.	.	.	4c/	4A/
=101-	=101-	=101	=101	=101	=101
1GG]	1D]	1r	1r	4B-/	2B-/
.	.	.	.	4A/	.
.	.	.	.	2B-/	2r
[1AA	[1C	2r	2.c\	1r	1r
.	.	[2c\	.	.	.
.	.	.	4B-\	.	.
=102-	=102-	=102	=102	=102	=102
0AA]	0C]	4c\]	2c\	0r	0r
.	.	4B-\	.	.	.
.	.	2c\	2.A/	.	.
.	.	2.A/	.	.	.
.	.	.	4G/	.	.
.	.	.	4F/	.	.
.	.	4G/	4E/	.	.
=103	=103	=103	=103	=103	=103
[0BB-	[0F	4F/	1D	2r	2.d/
.	.	4E/	.	.	.
.	.	1D	.	2.d/	.
.	.	.	.	.	4e/
.	.	.	2d\	.	2f/
.	.	.	.	4e/	.
.	.	2d\	2B-\	2f/	2d/
=104-	=104-	=104	=104	=104	=104
1BB-]	0F]	2B-\	2.d\	2d/	2.f/
.	.	2.d\	.	2.f/	.
.	.	.	4c\	.	4g/
[1FF	.	.	1A	.	2a/
.	.	4c\	.	4g/	.
.	.	[2A/	.	2a/	2f/
=105-	=105-	=105	=105	=105	=105
0FF]	0F	2A/]	0r	2f/	2c/
.	.	2r	.	2c/	2.f/
.	.	1r	.	2.f/	.
.	.	.	.	.	4e/
.	.	.	.	.	4d/
.	.	.	.	4e/	4c/
=106	=106	=106	=106	=106	=106
0r	[0G	0r	0r	4d/	2B-/
.	.	.	.	4c/	.
.	.	.	.	2B-/	2G/
.	.	.	.	2G/	2.B-/
.	.	.	.	[2B-/	.
.	.	.	.	.	4c/
=107-	=107-	=107	=107	=107	=107
0r	0G]	0r	0r	4B-/]	2d/
.	.	.	.	4c/	.
.	.	.	.	2d/	2B-/
.	.	.	.	2B-/	2.d/
.	.	.	.	[2d/	.
.	.	.	.	.	4c/
=108-	=108-	=108	=108	=108	=108
0r	0F	2r	4F/	4d/]	1A
.	.	.	4G/	4c/	.
.	.	4F/	4A/	1A	.
.	.	4G/	4B-\	.	.
.	.	4A/	2.c\	.	1r
.	.	4B-\	.	.	.
.	.	[2c\	.	2r	.
.	.	.	4B-\	.	.
=109	=109	=109	=109	=109	=109
0r	0E	4c\]	2.G/	0r	0r
.	.	4B-\	.	.	.
.	.	2.G/	.	.	.
.	.	.	4A/	.	.
.	.	.	2.B-\	.	.
.	.	4A/	.	.	.
.	.	[2B-\	.	.	.
.	.	.	4A/	.	.
=110-	=110-	=110	=110	=110	=110
0r	[0D	4B-\]	1F	2r	2.d/
.	.	4A/	.	.	.
.	.	1F	.	2.d/	.
.	.	.	.	.	4e/
.	.	.	1r	.	2f/
.	.	.	.	4e/	.
.	.	2r	.	2f/	2d/
=111-	=111-	=111	=111	=111	=111
0r	0D]	0r	0r	2d/	2.f/
.	.	.	.	2.f/	.
.	.	.	.	.	4g/
.	.	.	.	.	2.a/
.	.	.	.	4g/	.
.	.	.	.	[2a/	.
.	.	.	.	.	4g/
=112	=112	=112	=112	=112	=112
0r	0C	2r	1c	4a/]	0e
.	.	.	.	4g/	.
.	.	1c	.	[1.e	.
.	.	.	2G/	.	.
.	.	2G/	[2c\	.	.
=113-	=113-	=113	=113	=113	=113
0r	0r	2.c\	4c\]	2e/]	0r
.	.	.	4B-\	.	.
.	.	.	4A/	2r	.
.	.	4B-\	4G/	.	.
.	.	4A/	2.c\	1r	.
.	.	4G/	.	.	.
.	.	[2c\	.	.	.
.	.	.	4B-\	.	.
=114-	=114-	=114	=114	=114	=114
0C	0r	4c\]	2G/	0r	0r
.	.	4B-\	.	.	.
.	.	2G/	2.c\	.	.
.	.	2.c\	.	.	.
.	.	.	4B-\	.	.
.	.	.	4A/	.	.
.	.	4B-\	4G/	.	.
=115	=115	=115	=115	=115	=115
[0D	0r	4A/	0F	1r	2r
.	.	4G/	.	.	.
.	.	[1.F	.	.	2.f/
.	.	.	.	2.f/	.
.	.	.	.	.	4e/
.	.	.	.	.	4d/
.	.	.	.	4e/	4c/
=116-	=116-	=116	=116	=116	=116
0D]	0r	2F/]	0r	4d/	4B-/
.	.	.	.	4c/	4A/
.	.	2r	.	4B-/	2.d/
.	.	.	.	4A/	.
.	.	1r	.	2.d/	.
.	.	.	.	.	4c/
.	.	.	.	.	4B-/
.	.	.	.	4c/	4A/
=117-	=117-	=117	=117	=117	=117
0E	0r	0r	0r	4B-/	2G/
.	.	.	.	4A/	.
.	.	.	.	2G/	4g/
.	.	.	.	.	4f/
.	.	.	.	4g/	4e/
.	.	.	.	4f/	4d/
.	.	.	.	4e/	[2c/
.	.	.	.	4d/	.
=118	=118	=118	=118	=118	=118
0F	0r	0r	0r	1c	2c/]
.	.	.	.	.	2.f/
.	.	.	.	2.f/	.
.	.	.	.	.	4e/
.	.	.	.	.	4d/
.	.	.	.	4e/	4c/
=119-	=119-	=119	=119	=119	=119
[0G	0r	2r	2G/	4d/	1B-
.	.	.	.	4c/	.
.	.	2G/	2d\	1B-	.
.	.	2d\	2B-\	.	1r
.	.	2B-\	2G/	2r	.
=120-	=120-	=120	=120	=120	=120
0G]	0r	2G/	2d\	0r	0r
.	.	2d\	2B-\	.	.
.	.	2B-\	2.d\	.	.
.	.	[2d\	.	.	.
.	.	.	4c\	.	.
=121	=121	=121	=121	=121	=121
0F	[0FF	4d\]	2A/	0r	0r
.	.	4c\	.	.	.
.	.	2A/	2.c\	.	.
.	.	2.c\	.	.	.
.	.	.	4B-\	.	.
.	.	.	4A/	.	.
.	.	4B-\	4G/	.	.
=122-	=122-	=122	=122	=122	=122
[0F	1FF]	4A/	2A/	0r	0r
.	.	4G/	.	.	.
.	.	2A/	2.F/	.	.
.	[1BB-	2.F/	.	.	.
.	.	.	4E/	.	.
.	.	.	4D/	.	.
.	.	4E/	4C/	.	.
=123-	=123-	=123	=123	=123	=123
0F]	0BB-]	4D/	1D	0r	0r
.	.	4C/	.	.	.
.	.	1D	.	.	.
.	.	.	1r	.	.
.	.	2r	.	.	.
=124	=124	=124	=124	=124	=124
[0C	[0AA	0r	0r	0r	0r
=125-	=125-	=125	=125	=125	=125
1C]	1AA]	0r	0r	0r	0r
[1D	[1GG	.	.	.	.
=126-	=126-	=126	=126	=126	=126
0D]	0GG]	0r	0r	0r	0r
=127	=127	=127	=127	=127	=127
[0F	[0FF	0r	0r	2r	4A/
.	.	.	.	.	4B-/
.	.	.	.	4A/	4c/
.	.	.	.	4B-/	4d/
.	.	.	.	4c/	2c/
.	.	.	.	4d/	.
.	.	.	.	2c/	2A/
=128-	=128-	=128	=128	=128	=128
1F]	1FF]	0r	0r	2A/	2.c/
.	.	.	.	2.c/	.
.	.	.	.	.	4B-/
[1E	[1C	.	.	.	2G/
.	.	.	.	4B-/	.
.	.	.	.	2G/	[2g/
=129-	=129-	=129	=129	=129	=129
0E]	0C]	0r	0r	2.g/	4g/]
.	.	.	.	.	4f/
.	.	.	.	.	4e/
.	.	.	.	4f/	4d/
.	.	.	.	4e/	1c
.	.	.	.	4d/	.
.	.	.	.	[2c/	.
=130	=130	=130	=130	=130	=130
0F	[0FF	2r	4A/	2c/]	0r
.	.	.	4B-\	.	.
.	.	4A/	4c\	2r	.
.	.	4B-\	4d\	.	.
.	.	4c\	2c\	1r	.
.	.	4d\	.	.	.
.	.	2c\	2A/	.	.
=131-	=131-	=131	=131	=131	=131
[0F	0FF]	2A/	0r	2r	4A/
.	.	.	.	.	4B-/
.	.	2r	.	4A/	4c/
.	.	.	.	4B-/	4d/
.	.	1r	.	4c/	2c/
.	.	.	.	4d/	.
.	.	.	.	2c/	2A/
=132-	=132-	=132	=132	=132	=132
0F]	0r	2r	4F/	2A/	0r
.	.	.	4G/	.	.
.	.	4F/	4A/	2r	.
.	.	4G/	4B-\	.	.
.	.	4A/	2.c\	1r	.
.	.	4B-\	.	.	.
.	.	[2c\	.	.	.
.	.	.	4B-\	.	.
=133	=133	=133	=133	=133	=133
0r	[0C	4c\]	1G	2r	4e/
.	.	4B-\	.	.	4f/
.	.	1G	.	4e/	4g/
.	.	.	.	4f/	4a/
.	.	.	1r	4g/	2g/
.	.	.	.	4a/	.
.	.	2r	.	2g/	2e/
=134-	=134-	=134	=134	=134	=134
0r	0C]	2r	4E/	2e/	0r
.	.	.	4F/	.	.
.	.	4E/	4G/	2r	.
.	.	4F/	4A/	.	.
.	.	4G/	2G/	1r	.
.	.	4A/	.	.	.
.	.	2G/	2E/	.	.
=135-	=135-	=135	=135	=135	=135
0r	0C	2E/	2.c\	2r	4c/
.	.	.	.	.	4d/
.	.	2.c\	.	4c/	4e/
.	.	.	4B-\	4d/	4f/
.	.	.	2.G/	4e/	2.g/
.	.	4B-\	.	4f/	.
.	.	[2G/	.	[2g/	.
.	.	.	4A/	.	4f/
=136	=136	=136	=136	=136	=136
0r	[0BB-	4G/]	2.B-\	4g/]	2.d/
.	.	4A/	.	4f/	.
.	.	2.B-\	.	2.d/	.
.	.	.	4A/	.	4e/
.	.	.	2F/	.	2f/
.	.	4A/	.	4e/	.
.	.	2F/	2r	2f/	2d/
=137-	=137-	=137	=137	=137	=137
0r	1BB-]	2r	2.F/	2d/	2.f/
.	.	2.F/	.	2.f/	.
.	.	.	4G/	.	4e/
.	[1AA	.	2.A/	.	1c
.	.	4G/	.	4e/	.
.	.	[2A/	.	[2c/	.
.	.	.	4G/	.	.
=138-	=138-	=138	=138	=138	=138
0r	0AA]	4A/]	2E/	2c/]	0r
.	.	4G/	.	.	.
.	.	2E/	2r	2r	.
.	.	2r	2.E/	1r	.
.	.	[2E/	.	.	.
.	.	.	4F/	.	.
=139	=139	=139	=139	=139	=139
0r	[0GG	4E/]	2.G/	2r	2.B-/
.	.	4F/	.	.	.
.	.	2.G/	.	2.B-/	.
.	.	.	4F/	.	4c/
.	.	.	2D/	.	2d/
.	.	4F/	.	4c/	.
.	.	2D/	2r	2d/	2B-/
=140-	=140-	=140	=140	=140	=140
0r	1GG]	2r	2.D/	2B-/	2.d/
.	.	2.D/	.	2.d/	.
.	.	.	4E/	.	4c/
.	[1FF	.	2.F/	.	2.A/
.	.	4E/	.	4c/	.
.	.	[2F/	.	[2A/	.
.	.	.	4E/	.	4B-/
=141-	=141-	=141	=141	=141	=141
0r	0FF]	4F/]	2C/	4A/]	2c/
.	.	4E/	.	4B-/	.
.	.	2C/	2.F/	2c/	2A/
.	.	2.F/	.	2A/	2c/
.	.	.	4G/	.	.
.	.	.	4A/	2c/	2F/
.	.	4G/	4B-\	.	.
=142	=142	=142	=142	=142	=142
[0C	[0FF	4A/	2c\	2F/	2r
.	.	4B-\	.	.	.
.	.	2c\	2F/	2r	1A
.	.	2F/	2r	1A	.
.	.	2r	[2A/	.	2F/
=143-	=143-	=143	=143	=143	=143
1C]	0FF]	1A	2A/]	2F/	2.c/
.	.	.	2F/	2.c/	.
.	.	.	.	.	4B-/
[1F	.	2F/	2.c\	.	4A/
.	.	.	.	4B-/	4G/
.	.	[2c\	.	4A/	2F/
.	.	.	4B-\	4G/	.
=144-	=144-	=144	=144	=144	=144
0F]	0r	4c\]	4A/	2F/	2r
.	.	4B-\	4G/	.	.
.	.	4A/	2F/	2r	2c/
.	.	4G/	.	.	.
.	.	2F/	2r	2c/	2A/
.	.	2r	[2C/	2A/	2c/
=145	=145	=145	=145	=145	=145
0E	[0C	2.C/	4C/]	2c/	2G/
.	.	.	4D/	.	.
.	.	.	4E/	2G/	2.c/
.	.	4D/	4F/	.	.
.	.	4E/	2G/	2.c/	.
.	.	4F/	.	.	4d/
.	.	2G/	2C/	.	4e/
.	.	.	.	4d/	4f/
=146-	=146-	=146	=146	=146	=146
[0E	0C]	2C/	2r	4e/	2g/
.	.	.	.	4f/	.
.	.	2r	2G/	2g/	2c/
.	.	2G/	2E/	2c/	2r
.	.	2E/	2G/	2r	[2g/
=147-	=147-	=147	=147	=147	=147
0E]	0C	2G/	2C/	2.g/	4g/]
.	.	.	.	.	4f/
.	.	2C/	2r	.	4e/
.	.	.	.	4f/	4d/
.	.	2r	2.c\	4e/	2e/
.	.	.	.	4d/	.
.	.	[2c\	.	2e/	2c/
.	.	.	4B-\	.	.
=148	=148	=148	=148	=148	=148
0F	[0FFl	4c\]	4A/	2c/	2r
.	.	4B-\	4G/	.	.
.	.	4A/	2A/	2r	2.c/
.	.	4G/	.	.	.
.	.	2A/	2F/	2.c/	.
.	.	.	.	.	4B-/
.	.	2F/	2c\	.	4A/
.	.	.	.	4B-/	4G/
=149-	=149-	=149	=149	=149	=149
[0Fl	0FF_	2c\	2r	4A/	2A/
.	.	.	.	4G/	.
.	.	2r	2.c\	2A/	2F/
.	.	2.c\	.	2F/	2.A/
.	.	.	4B-\	.	.
.	.	.	4A/	[2A/	.
.	.	4B-\	4G/	.	4B-/
=150-	=150-	=150	=150	=150	=150
0F]	0FF]	4A/	0Al	4A/]	0cl
.	.	4G/	.	4B-/	.
.	.	1.Al	.	1.cl	.
==	==	==	==	==	==
*rscale:1	*rscale:1	*	*	*	*
*-	*-	*-	*-	*-	*-
!!!RDF**kern: l=long note in original notation
!!!RDF**kern: i=editorial accidental
!!!ENC: Jesse Rodin; Victoria Chang 2011/09/04
!!!END: 2011/09/04/
!!!SMS: Petrucci 1502; Agnus Dei III from VatS 41
!!!EED: Jesse Rodin
!!!EEV: 2013/10/25/
!!attribution-level@Jos: 1 (secure)
!!!ONB: Translated from MusicXML and edited on 2011/10/04/ by Craig Sapp
!!muse2ps: T^@{OPR}^u^@{ONM}{. }@{OTL}^C^@{COM}\n@{SCT}^i2I100v100,100,100,100,100,150c95Q16
